X: 29978
T: Ocean Child
R: reel
M: 4/4
K: Amajor
f2 ec ef c2|c/B/ABF AF z F|A ~F3 A z Ac|B ~F3 ABc/d/e|
ff ec ee c z|c/B/ABF AF z F|A ~F3 A2 Ac|1 BA F4 B/c/e:|2 BA F4 z2||
B2 BB- BB AF|ABBA BA c2|B3 B- B2 AF|ABBA Bcea|
f4 zfec|effe feab|1 f3 f- f2 ec|e ~c3 Bc F2:|2 f3 f- f3 e|fz z2 a2 ba||
c'2 f2 fc'ba|a ~f3- f2 ec|Bc f z f-fea-|af2 z aaba|
c'2 f2 fc'ba|a ~f3- f2 ec|Bcf z f2 af-|f2 z2 a2 ba|
c'2 f2 fc'ba|a ~f3- f2 ec|Bc f z f-fea-|af z2 f z2 f|
cefa bafc|efz c ef z F|Fcfe c/B/A F2|F8||

